assets/logo.svg

<svg height="257" viewBox="0 0 257 257" width="257" xmlns="http://www.w3.org/2000/svg" xmlns:xlink="http://www.w3.org/1999/xlink"><defs><circle id="a" cx="128.5" cy="128.5" r="125.5"/><mask id="b" fill="#fff"><use fill="none" xlink:href="#a"/></mask><mask id="c" fill="#fff"><path d="m.00024712 1.14628051h149.86101388v150.78133849h-149.86101388z" fill="none"/></mask></defs><g fill="none" fill-rule="evenodd"><use fill="#4d384b" xlink:href="#a"/><g mask="url(#b)"><g fill="#fffffe" fill-rule="evenodd" transform="translate(53 53)"><path d="m61.6906905 70.248127 6.4558492 19.4005079 20.0230793-6.7507301-6.4546507-19.400508z" mask="url(#c)"/><path d="m117.543913 89.4881905-9.70954 3.2728254 3.365143 10.1128251c1.362595 4.095556-.8305 8.527683-4.899111 9.898096-.884429.299174-1.785635.428253-2.666468.404126-3.173397-.082031-6.0999211-2.130412-7.16531-5.334476l-3.3651429-10.1140314-20.0230793 6.7495234 3.3651428 10.114032c1.3625953 4.094349-.8305 8.526476-4.8991111 9.898095-.8844286.297969-1.7844365.427048-2.6664682.404127-3.1721985-.083238-6.0987223-2.131619-7.1653096-5.335682l-3.3651428-10.114032-9.7107381 3.274032c-.885627.297968-1.7856349.427047-2.6676667.404127-3.1721984-.083238-6.0987222-2.131619-7.1653095-5.335683-1.3625953-4.095555.8316984-8.526476 4.8991111-9.898095l9.7107381-3.2728254-6.4558492-19.4005079-9.7095397 3.2728254c-.8844286.2979682-1.7856349.4270476-2.6676667.4041269-3.171-.083238-6.0987222-2.131619-7.1641111-5.3356825-1.3625952-4.0955555.8305-8.5264762 4.8991111-9.8980952l9.7083413-3.2728254-3.3651428-10.1140318c-1.3625953-4.0943492.8305-8.5252698 4.8991111-9.8980952 4.0686111-1.3704127 8.4703809.8372063 9.8317777 4.9315555l3.3651429 10.1140318 20.0230794-6.7495238-3.3651429-10.1140318c-1.3625952-4.0955555.8316984-8.5264762 4.8991111-9.8980952 4.0674127-1.3716191 8.470381.8372063 9.8329762 4.9315556l3.3651429 10.1140317 9.7095399-3.2740317c4.069809-1.3704127 8.470381.8372063 9.832976 4.9315555 1.362595 4.0955556-.831698 8.5264762-4.899111 9.8980952l-9.7095399 3.2728254 6.4546509 19.4017143 9.710738-3.2740317c4.068611-1.3704127 8.470381.8372063 9.831778 4.9315555 1.362595 4.0943492-.8305 8.5264762-4.899111 9.8980953zm26.045103-33.6499048c-15.448738-51.83441268-37.763183-63.92926983-89.2565795-48.37822221-51.49339682 15.55104761-63.50868253 38.01326981-48.05994444 89.84768251 15.44873814 51.834413 37.76318254 63.92927 89.25657934 48.378222 51.4933966-15.551047 63.5086826-38.01327 48.0599446-89.8476823z" mask="url(#c)"/></g></g></g></svg>

<?xml version="1.0" encoding="UTF-8"?>
<svg width="257px" height="257px" viewBox="0 0 257 257" version="1.1" xmlns="http://www.w3.org/2000/svg" xmlns:xlink="http://www.w3.org/1999/xlink">
    <!-- Generator: Sketch 50.2 (55047) - http://www.bohemiancoding.com/sketch -->
    <title>slack/logo</title>
    <desc>Created with Sketch.</desc>
    <defs>
        <circle id="path-1" cx="128.5" cy="128.5" r="125.5"></circle>
        <polygon id="path-3" points="0.000247124097 1.14628051 149.861261 1.14628051 149.861261 151.927619 0.000247124097 151.927619"></polygon>
    </defs>
    <g id="slack/logo" stroke="none" stroke-width="1" fill="none" fill-rule="evenodd">
        <mask id="mask-2" fill="white">
            <use xlink:href="#path-1"></use>
        </mask>
        <use id="Mask" fill="#4D384B" xlink:href="#path-1"></use>
        <g id="Group-12" mask="url(#mask-2)">
            <g transform="translate(53.000000, 53.000000)">
                <mask id="mask-4" fill="white">
                    <use xlink:href="#path-3"></use>
                </mask>
                <g id="Clip-10" stroke="none" fill="none"></g>
                <polyline id="Fill-9" stroke="none" fill="#FFFFFE" fill-rule="evenodd" mask="url(#mask-4)" points="61.6906905 70.248127 68.1465397 89.6486349 88.169619 82.8979048 81.7149683 63.4973968 61.6906905 70.248127"></polyline>
                <path d="M117.543913,89.4881905 L107.834373,92.7610159 L111.199516,102.873841 C112.562111,106.969397 110.369016,111.401524 106.300405,112.771937 C105.415976,113.071111 104.51477,113.20019 103.633937,113.176063 C100.46054,113.094032 97.5340159,111.045651 96.468627,107.841587 L93.1034841,97.7275556 L73.0804048,104.477079 L76.4455476,114.591111 C77.8081429,118.68546 75.6150476,123.117587 71.5464365,124.489206 C70.6620079,124.787175 69.762,124.916254 68.8799683,124.893333 C65.7077698,124.810095 62.781246,122.761714 61.7146587,119.557651 L58.3495159,109.443619 L48.6387778,112.717651 C47.7531508,113.015619 46.8531429,113.144698 45.9711111,113.121778 C42.7989127,113.03854 39.8723889,110.990159 38.8058016,107.786095 C37.4432063,103.69054 39.6375,99.259619 43.7049127,97.888 L53.4156508,94.6151746 L46.9598016,75.2146667 L37.2502619,78.4874921 C36.3658333,78.7854603 35.464627,78.9145397 34.5825952,78.891619 C31.4115952,78.808381 28.483873,76.76 27.4184841,73.5559365 C26.0558889,69.460381 28.2489841,65.0294603 32.3175952,63.6578413 L42.0259365,60.3850159 L38.6607937,50.2709841 C37.2981984,46.1766349 39.4912937,41.7457143 43.5599048,40.3728889 C47.6285159,39.0024762 52.0302857,41.2100952 53.3916825,45.3044444 L56.7568254,55.4184762 L76.7799048,48.6689524 L73.4147619,38.5549206 C72.0521667,34.4593651 74.2464603,30.0284444 78.313873,28.6568254 C82.3812857,27.2852063 86.784254,29.4940317 88.1468492,33.588381 L91.5119921,43.7024127 L101.221532,40.428381 C105.291341,39.0579683 109.691913,41.2655873 111.054508,45.3599365 C112.417103,49.4554921 110.22281,53.8864127 106.155397,55.2580317 L96.4458571,58.5308571 L102.900508,77.9325714 L112.611246,74.6585397 C116.679857,73.288127 121.081627,75.495746 122.443024,79.5900952 C123.805619,83.6844444 121.612524,88.1165714 117.543913,89.4881905 Z M143.589016,55.8382857 C128.140278,4.00387302 105.825833,-8.09098413 54.3324365,7.46006349 C2.83903968,23.0111111 -9.17624603,45.4733333 6.27249206,97.307746 C21.7212302,149.142159 44.0356746,161.237016 95.5290714,145.685968 C147.022468,130.134921 159.037754,107.672698 143.589016,55.8382857 Z" id="Fill-11" stroke="none" fill="#FFFFFE" fill-rule="evenodd" mask="url(#mask-4)"></path>
            </g>
        </g>
    </g>
</svg>
